X:1
T:Vesper Hymn (Everett), LM
T:Vesper Hymn (Everett), LM
T:Asa Brooks Everett, 1859
T:Public Domain Courtesy of the Cyber Hymnal™
C:Asa Brooks Everett, 1859
Z:Public Domain
Z:Courtesy of the Cyber Hymnal™
%%score 1 ( 2 3 ) 4
L:1/8
Q:1/4=97
M:2/4
K:A
V:1 treble-8 
V:2 treble 
V:3 treble 
V:4 bass 
V:1
 c2 ee | e2 A2 | A2 A2 | A3 c | cc ee | e2 d2 | c4 | c2 ee | e2 A2 | A2 A2 | A3 c | cc ee | d2 d2 | %13
 c4 |] %14
V:2
 [EA]2 [Ac][Ae] | [GB]2 [Ec]2 | [DF]2 ([FA][DF]) | [CE]3 [EA] | [EA][EA] [Ac][Ac] | [GB]2 [GB]2 | %6
 A4 | [EA]2 [Ac][Ae] | [GB]2 [Ec]2 | [DF]2 ([FA][DF]) | [CE]3 [EA] | [EA][EA] [Ac][Ac] | %12
 [FB]2 (cB) | [EA]4 |] %14
V:3
 x4 | x4 | x4 | x4 | x4 | x4 | A4 | x4 | x4 | x4 | x4 | x4 | x2 E2 | x4 |] %14
V:4
 A,2 A,,C, | E,2 C,2 | D,2 D,2 | A,,3 A,, | A,A, A,A, | E,2 E,2 | A,,4 | A,2 A,,C, | E,2 C,2 | %9
 D,2 D,2 | A,,3 A,, | A,A, A,C, | D,2 D,2 | A,,4 |] %14

